assets/Microbe/Flat/microbe_flat.svg

<svg width="32" height="32" viewBox="0 0 32 32" fill="none" xmlns="http://www.w3.org/2000/svg">
<path d="M9.29548 7.37551C8.70548 7.50551 8.12548 7.12551 7.99548 6.53551L7.30548 3.32551C7.17548 2.73551 7.55548 2.15551 8.14548 2.02551C8.73548 1.89551 9.31548 2.27551 9.44548 2.86551L10.1355 6.07551C10.2655 6.66551 9.88548 7.25551 9.29548 7.37551Z" fill="#00D26A"/>
<path d="M11.9055 8.25557C11.6055 7.73557 11.7855 7.06557 12.3055 6.76557L15.1455 5.12557C15.6655 4.82557 16.3355 5.00557 16.6355 5.52557C16.9355 6.04557 16.7555 6.71557 16.2355 7.01557L13.3955 8.65557C12.8755 8.95557 12.2055 8.77557 11.9055 8.25557Z" fill="#00D26A"/>
<path d="M14.2255 12.6056C13.7655 12.9956 13.7255 13.6956 14.1155 14.1456C14.5055 14.5956 15.2055 14.6456 15.6555 14.2556L18.1255 12.1056C18.5855 11.7156 18.6255 11.0156 18.2355 10.5656C17.8455 10.1056 17.1455 10.0656 16.6955 10.4556L14.2255 12.6056Z" fill="#00D26A"/>
<path d="M21.9355 15.7755C21.3555 15.6355 20.9955 15.0355 21.1355 14.4555L21.9255 11.2755C22.0655 10.6955 22.6655 10.3355 23.2455 10.4755C23.8255 10.6155 24.1855 11.2155 24.0455 11.7955L23.2555 14.9755C23.1155 15.5655 22.5155 15.9255 21.9355 15.7755Z" fill="#00D26A"/>
<path d="M25.4455 16.3055C24.8655 16.4755 24.5355 17.0855 24.7055 17.6655C24.8755 18.2455 25.4855 18.5855 26.0655 18.4055L29.2155 17.4855C29.7955 17.3155 30.1255 16.7055 29.9555 16.1255C29.7855 15.5455 29.1755 15.2155 28.5955 15.3855L25.4455 16.3055Z" fill="#00D26A"/>
<path d="M24.0055 21.9756C24.4355 21.5456 25.1255 21.5456 25.5555 21.9756L27.8755 24.2956C28.3055 24.7256 28.3055 25.4156 27.8755 25.8456C27.4455 26.2756 26.7555 26.2756 26.3255 25.8456L24.0055 23.5256C23.5755 23.0956 23.5755 22.3956 24.0055 21.9756Z" fill="#00D26A"/>
<path d="M20.4655 24.7055C20.4655 24.1055 19.9755 23.6155 19.3755 23.6155C18.7755 23.6155 18.2855 24.1055 18.2855 24.7055V27.9855C18.2855 28.5855 18.7755 29.0755 19.3755 29.0755C19.9755 29.0755 20.4655 28.5855 20.4655 27.9855V24.7055Z" fill="#00D26A"/>
<path d="M13.8555 22.6555C14.3755 22.9555 14.5555 23.6255 14.2555 24.1455L12.6155 26.9855C12.3155 27.5055 11.6455 27.6855 11.1255 27.3855C10.6055 27.0855 10.4255 26.4155 10.7255 25.8955L12.3655 23.0555C12.6655 22.5355 13.3355 22.3555 13.8555 22.6555Z" fill="#00D26A"/>
<path d="M9.71547 20.7355C10.1755 20.3455 10.2155 19.6455 9.82547 19.1955C9.43547 18.7455 8.73547 18.6955 8.28547 19.0855L5.81547 21.2355C5.35547 21.6255 5.31547 22.3255 5.70547 22.7755C6.09547 23.2355 6.79547 23.2755 7.24547 22.8855L9.71547 20.7355Z" fill="#00D26A"/>
<path d="M7.72548 15.0055C7.89548 15.5855 7.56548 16.1955 6.98548 16.3655L3.83548 17.2855C3.25548 17.4555 2.64548 17.1255 2.47548 16.5455C2.30548 15.9655 2.63548 15.3555 3.21548 15.1855L6.36548 14.2655C6.94548 14.0955 7.55548 14.4255 7.72548 15.0055Z" fill="#00D26A"/>
<path d="M6.24548 10.6555C6.84548 10.7155 7.37548 10.2755 7.43548 9.67552C7.49548 9.07552 7.04548 8.54552 6.45548 8.48552L3.19548 8.17552C2.59548 8.11552 2.06548 8.55552 2.00548 9.15552C1.94548 9.75552 2.38548 10.2855 2.98548 10.3455L6.24548 10.6555Z" fill="#00D26A"/>
<path d="M21.4655 13.0455C21.2855 13.0355 20.9755 13.0555 20.5555 13.0855C19.4755 13.1755 17.2155 13.3555 16.2255 12.5555C15.1755 11.7055 15.1655 11.1155 15.1355 10.0355V9.9755V9.7855L15.1155 9.4555C15.1055 9.3355 15.0855 9.2255 15.0655 9.1555C14.7055 6.5755 12.4955 4.6355 9.88546 4.6355C8.43546 4.6355 7.09546 5.2255 6.11546 6.2455L6.09546 6.2255L5.95546 6.4355C5.76546 6.6455 5.60547 6.8755 5.44547 7.1255L4.97546 8.0755C4.55546 9.2455 4.50546 10.6655 4.50546 12.0355C4.50546 19.9255 10.9255 26.3455 18.8155 26.3455C19.8155 26.3455 21.5055 26.0955 22.5455 25.8655C22.6455 25.8455 22.7455 25.8255 22.9255 25.7755C23.1455 25.7255 23.3855 25.6555 23.6155 25.5655C26.1455 24.6255 27.8455 22.1955 27.8455 19.5155C27.8555 15.9455 24.9555 13.0455 21.4655 13.0455Z" fill="#00F397"/>
<path d="M11.3955 9.84549C11.3955 10.4475 10.9075 10.9355 10.3055 10.9355C9.70349 10.9355 9.21548 10.4475 9.21548 9.84549C9.21548 9.2435 9.70349 8.75549 10.3055 8.75549C10.9075 8.75549 11.3955 9.2435 11.3955 9.84549Z" fill="#00A6ED"/>
<path d="M17.2755 20.4455C17.2755 21.0475 16.7874 21.5355 16.1855 21.5355C15.5835 21.5355 15.0955 21.0475 15.0955 20.4455C15.0955 19.8435 15.5835 19.3555 16.1855 19.3555C16.7874 19.3555 17.2755 19.8435 17.2755 20.4455Z" fill="#00A6ED"/>
<path d="M17.5155 17.9956C18.1175 17.9956 18.6055 17.5075 18.6055 16.9056C18.6055 16.3036 18.1175 15.8156 17.5155 15.8156C16.9135 15.8156 16.4255 16.3036 16.4255 16.9056C16.4255 17.5075 16.9135 17.9956 17.5155 17.9956Z" fill="#00A6ED"/>
<path d="M22.3155 19.3555C22.3155 20.2612 21.5812 20.9955 20.6755 20.9955C19.7697 20.9955 19.0355 20.2612 19.0355 19.3555C19.0355 18.4497 19.7697 17.7155 20.6755 17.7155C21.5812 17.7155 22.3155 18.4497 22.3155 19.3555Z" fill="#00A6ED"/>
</svg>

<svg xmlns="http://www.w3.org/2000/svg" width="32" height="32" fill="none"><path fill="#00D26A" d="M9.295 7.376c-.59.13-1.17-.25-1.3-.84l-.69-3.21a1.095 1.095 0 0 1 2.14-.46l.69 3.21c.13.59-.25 1.18-.84 1.3ZM11.905 8.256c-.3-.52-.12-1.19.4-1.49l2.84-1.64c.52-.3 1.19-.12 1.49.4.3.52.12 1.19-.4 1.49l-2.84 1.64c-.52.3-1.19.12-1.49-.4ZM14.226 12.606c-.46.39-.5 1.09-.11 1.54.39.45 1.09.5 1.54.11l2.47-2.15a1.092 1.092 0 0 0-1.43-1.65l-2.47 2.15ZM21.936 15.775a1.1 1.1 0 0 1-.8-1.32l.79-3.18a1.1 1.1 0 0 1 1.32-.8c.58.14.94.74.8 1.32l-.79 3.18c-.14.59-.74.95-1.32.8ZM25.445 16.305c-.58.17-.91.78-.74 1.36.17.58.78.92 1.36.74l3.15-.92a1.095 1.095 0 0 0-.62-2.1l-3.15.92ZM24.006 21.976c.43-.43 1.12-.43 1.55 0l2.32 2.32c.43.43.43 1.12 0 1.55-.43.43-1.12.43-1.55 0l-2.32-2.32c-.43-.43-.43-1.13 0-1.55ZM20.465 24.706c0-.6-.49-1.09-1.09-1.09-.6 0-1.09.49-1.09 1.09v3.28c0 .6.49 1.09 1.09 1.09.6 0 1.09-.49 1.09-1.09v-3.28ZM13.855 22.655c.52.3.7.97.4 1.49l-1.64 2.84c-.3.52-.97.7-1.49.4-.52-.3-.7-.97-.4-1.49l1.64-2.84c.3-.52.97-.7 1.49-.4ZM9.715 20.735c.46-.39.5-1.09.11-1.54-.39-.45-1.09-.5-1.54-.11l-2.47 2.15a1.092 1.092 0 0 0 1.43 1.65l2.47-2.15ZM7.725 15.005c.17.58-.16 1.19-.74 1.36l-3.15.92a1.095 1.095 0 0 1-.62-2.1l3.15-.92c.58-.17 1.19.16 1.36.74ZM6.245 10.655a1.089 1.089 0 1 0 .21-2.17l-3.26-.31a1.089 1.089 0 1 0-.21 2.17l3.26.31Z"/><path fill="#00F397" d="M21.465 13.046c-.18-.01-.49.01-.91.04-1.08.09-3.34.27-4.33-.53-1.05-.85-1.06-1.44-1.09-2.52v-.25l-.02-.33c-.01-.12-.03-.23-.05-.3a5.244 5.244 0 0 0-5.18-4.52 5.2 5.2 0 0 0-3.77 1.61l-.02-.02-.14.21c-.19.21-.35.44-.51.69l-.47.95c-.42 1.17-.47 2.59-.47 3.96 0 7.89 6.42 14.31 14.31 14.31 1 0 2.69-.25 3.73-.48.1-.02.2-.04.38-.09.22-.05.46-.12.69-.21 2.53-.94 4.23-3.37 4.23-6.05.01-3.57-2.89-6.47-6.38-6.47Z"/><path fill="#00A6ED" d="M11.396 9.845a1.09 1.09 0 1 1-2.18 0 1.09 1.09 0 0 1 2.18 0ZM17.276 20.445a1.09 1.09 0 1 1-2.18 0 1.09 1.09 0 0 1 2.18 0ZM17.515 17.996a1.09 1.09 0 1 0 0-2.18 1.09 1.09 0 0 0 0 2.18ZM22.316 19.355a1.64 1.64 0 1 1-3.28 0 1.64 1.64 0 0 1 3.28 0Z"/></svg>
